Numix/16/status/indicator-keyboard-Ru-8.svg

<?xml version="1.0" encoding="UTF-8" standalone="no"?>
<svg
   xmlns:dc="http://purl.org/dc/elements/1.1/"
   xmlns:cc="http://creativecommons.org/ns#"
   xmlns:rdf="http://www.w3.org/1999/02/22-rdf-syntax-ns#"
   xmlns:svg="http://www.w3.org/2000/svg"
   xmlns="http://www.w3.org/2000/svg"
   xmlns:sodipodi="http://sodipodi.sourceforge.net/DTD/sodipodi-0.dtd"
   xmlns:inkscape="http://www.inkscape.org/namespaces/inkscape"
   viewBox="0 0 16 16"
   id="svg2"
   version="1.1"
   inkscape:version="0.91 r13725"
   sodipodi:docname="indicator-keyboard-Ru-8.svg">
  <metadata
     id="metadata14">
    <rdf:RDF>
      <cc:Work
         rdf:about="">
        <dc:format>image/svg+xml</dc:format>
        <dc:type
           rdf:resource="http://purl.org/dc/dcmitype/StillImage" />
      </cc:Work>
    </rdf:RDF>
  </metadata>
  <defs
     id="defs12" />
  <sodipodi:namedview
     pagecolor="#ffffff"
     bordercolor="#666666"
     borderopacity="1"
     objecttolerance="10"
     gridtolerance="10"
     guidetolerance="10"
     inkscape:pageopacity="0"
     inkscape:pageshadow="2"
     inkscape:window-width="640"
     inkscape:window-height="480"
     id="namedview10"
     showgrid="false"
     inkscape:zoom="14.75"
     inkscape:cx="8"
     inkscape:cy="8"
     inkscape:window-x="65"
     inkscape:window-y="24"
     inkscape:window-maximized="0"
     inkscape:current-layer="svg2" />
  <path
     style="fill:#ececec;fill-opacity:1"
     d="M 1.5996094 0 C 0.71320937 2.9605947e-16 0 0.71320937 0 1.5996094 L 0 14.400391 C 2.9605947e-16 15.286791 0.71320937 16 1.5996094 16 L 14.400391 16 C 15.286791 16 16 15.286791 16 14.400391 L 16 1.5996094 C 16 0.71320937 15.286791 0 14.400391 0 L 1.5996094 0 z M 3.1796875 4.8046875 C 4.0376875 4.8046875 4.6832344 4.9670156 5.1152344 5.2910156 C 5.5532344 5.6150156 5.7714844 6.0944688 5.7714844 6.7304688 C 5.7714844 7.1984687 5.6483437 7.5678906 5.4023438 7.8378906 C 5.1563438 8.1078906 4.8316875 8.3038281 4.4296875 8.4238281 C 4.5256875 8.5438281 4.6488281 8.7042031 4.7988281 8.9082031 C 4.9548281 9.1122031 5.1153437 9.3379844 5.2773438 9.5839844 C 5.4393438 9.8239844 5.5979062 10.075844 5.7539062 10.339844 C 5.9099063 10.603844 6.0404375 10.855703 6.1484375 11.095703 L 5.4921875 11.095703 C 5.3661875 10.855703 5.228125 10.616953 5.078125 10.376953 C 4.934125 10.136953 4.7849062 9.9055939 4.6289062 9.6835938 C 4.4789062 9.4555937 4.3315 9.2447344 4.1875 9.0527344 L 3.8085938 8.5488281 C 3.6165937 8.5668281 3.4244219 8.5761719 3.2324219 8.5761719 L 2.2246094 8.5761719 L 2.2246094 11.095703 L 1.6132812 11.095703 L 1.6132812 4.9765625 C 1.8292813 4.9165625 2.0811406 4.8736094 2.3691406 4.8496094 C 2.6631406 4.8196094 2.9336875 4.8046875 3.1796875 4.8046875 z M 3.2519531 5.3359375 C 3.0239531 5.3359375 2.8224375 5.3452813 2.6484375 5.3632812 C 2.4804375 5.3752812 2.3386094 5.3864375 2.2246094 5.3984375 L 2.2246094 8.0546875 L 3.0722656 8.0546875 C 3.3542656 8.0546875 3.6210469 8.0415781 3.8730469 8.0175781 C 4.1250469 7.9875781 4.3432969 7.9278906 4.5292969 7.8378906 C 4.7152969 7.7418906 4.8627031 7.6075938 4.9707031 7.4335938 C 5.0787031 7.2595938 5.1328125 7.0226562 5.1328125 6.7226562 C 5.1328125 6.4466563 5.0787031 6.2171094 4.9707031 6.0371094 C 4.8627031 5.8571094 4.720875 5.7172344 4.546875 5.6152344 C 4.372875 5.5072344 4.1733125 5.4344375 3.9453125 5.3984375 C 3.7233125 5.3564375 3.4919531 5.3359375 3.2519531 5.3359375 z M 7.078125 6.4433594 L 7.6621094 6.4433594 L 7.6621094 8.8632812 C 7.6621094 9.1932813 7.686375 9.4731719 7.734375 9.7011719 C 7.782375 9.9291721 7.86075 10.115766 7.96875 10.259766 C 8.07675 10.397766 8.2148125 10.498453 8.3828125 10.564453 C 8.5568125 10.624453 8.7676719 10.654297 9.0136719 10.654297 C 9.2896719 10.654297 9.5284219 10.639375 9.7324219 10.609375 C 9.9364221 10.579375 10.065141 10.553297 10.119141 10.529297 L 10.119141 6.4433594 L 10.705078 6.4433594 L 10.705078 10.933594 C 10.531078 10.981594 10.297906 11.035703 10.003906 11.095703 C 9.709906 11.155703 9.3498281 11.185547 8.9238281 11.185547 C 8.5758281 11.185547 8.2847812 11.135203 8.0507812 11.033203 C 7.8167813 10.931203 7.6264219 10.787562 7.4824219 10.601562 C 7.3384219 10.415563 7.2339687 10.189781 7.1679688 9.9257812 C 7.1079688 9.6617813 7.078125 9.3707344 7.078125 9.0527344 L 7.078125 6.4433594 z M 13.123047 8.7539062 C 13.325847 8.7539062 13.502191 8.7852563 13.650391 8.8476562 C 13.798591 8.9061562 13.918119 8.9845313 14.011719 9.0820312 C 14.109219 9.1795312 14.179756 9.2912156 14.222656 9.4160156 C 14.269456 9.5408156 14.292969 9.6681812 14.292969 9.8007812 C 14.292969 9.9294812 14.273375 10.049003 14.234375 10.158203 C 14.195375 10.263503 14.144431 10.361472 14.082031 10.451172 C 14.019631 10.536972 13.949094 10.613388 13.871094 10.679688 C 13.793094 10.745988 13.718631 10.800856 13.644531 10.847656 C 13.917531 10.964656 14.107597 11.111609 14.216797 11.287109 C 14.329897 11.462609 14.386719 11.64875 14.386719 11.84375 C 14.386719 12.01145 14.355369 12.164288 14.292969 12.304688 C 14.234469 12.445088 14.150216 12.566569 14.041016 12.667969 C 13.931816 12.765469 13.800531 12.841884 13.644531 12.896484 C 13.488531 12.954984 13.314147 12.984375 13.123047 12.984375 C 12.931947 12.984375 12.757563 12.956944 12.601562 12.902344 C 12.449462 12.847744 12.318178 12.771328 12.205078 12.673828 C 12.095878 12.572428 12.009666 12.454866 11.947266 12.322266 C 11.888766 12.185766 11.859375 12.038806 11.859375 11.878906 C 11.859375 11.742406 11.878969 11.618966 11.917969 11.509766 C 11.956969 11.396666 12.007912 11.296737 12.070312 11.210938 C 12.136613 11.121237 12.211069 11.042863 12.292969 10.976562 C 12.378769 10.906363 12.466947 10.845622 12.560547 10.794922 C 12.322647 10.677922 12.161972 10.540759 12.076172 10.380859 C 11.990372 10.220959 11.947266 10.046575 11.947266 9.859375 C 11.947266 9.691675 11.976656 9.5407968 12.035156 9.4042969 C 12.093656 9.2677969 12.173991 9.1521937 12.275391 9.0585938 C 12.380691 8.9610938 12.504137 8.8866375 12.648438 8.8359375 C 12.792737 8.7813375 12.951447 8.7539062 13.123047 8.7539062 z M 13.123047 9.0820312 C 12.994347 9.0820312 12.880703 9.101625 12.783203 9.140625 C 12.685703 9.179625 12.603409 9.2344875 12.537109 9.3046875 C 12.474709 9.3709875 12.427678 9.4493625 12.392578 9.5390625 C 12.361378 9.6287624 12.345703 9.7208594 12.345703 9.8183594 C 12.345703 9.9275594 12.357459 10.027487 12.380859 10.117188 C 12.408159 10.206888 12.455191 10.289181 12.525391 10.363281 C 12.595591 10.433481 12.693559 10.5001 12.818359 10.5625 C 12.943159 10.621 13.107747 10.677822 13.310547 10.732422 C 13.489947 10.631022 13.631028 10.505622 13.736328 10.357422 C 13.841628 10.209222 13.894531 10.023081 13.894531 9.8007812 C 13.894531 9.7110812 13.878856 9.6248624 13.847656 9.5390625 C 13.820356 9.4532625 13.775291 9.3768469 13.712891 9.3105469 C 13.654391 9.2403469 13.577969 9.1854844 13.480469 9.1464844 C 13.382969 9.1035844 13.263447 9.0820312 13.123047 9.0820312 z M 12.888672 10.929688 C 12.689772 11.023287 12.536934 11.150647 12.427734 11.310547 C 12.318534 11.466547 12.263672 11.656606 12.263672 11.878906 C 12.263672 11.988106 12.281306 12.088041 12.316406 12.181641 C 12.351506 12.275241 12.404409 12.357534 12.474609 12.427734 C 12.548709 12.497934 12.636888 12.554756 12.742188 12.597656 C 12.851387 12.636656 12.978747 12.65625 13.123047 12.65625 C 13.267347 12.65625 13.392747 12.636656 13.498047 12.597656 C 13.607247 12.554756 13.695425 12.497934 13.765625 12.427734 C 13.839725 12.357534 13.894588 12.275241 13.929688 12.181641 C 13.964787 12.088041 13.982422 11.988106 13.982422 11.878906 C 13.982422 11.711206 13.949113 11.57405 13.882812 11.46875 C 13.820412 11.36345 13.738113 11.277238 13.632812 11.210938 C 13.531413 11.144638 13.41385 11.091734 13.28125 11.052734 C 13.15255 11.013734 13.021272 10.972587 12.888672 10.929688 z "
     id="path4" />
</svg>

<svg xmlns="http://www.w3.org/2000/svg" viewBox="0 0 16 16">
 <path d="m 1.6 0 c -0.886 0 -1.6 0.713 -1.6 1.6 l 0 12.801 c 0 0.886 0.713 1.6 1.6 1.6 l 12.801 0 c 0.886 0 1.6 -0.713 1.6 -1.6 l 0 -12.801 c 0 -0.886 -0.713 -1.6 -1.6 -1.6 l -12.801 0 z m 1.58 4.805 c 0.858 0 1.504 0.162 1.936 0.486 c 0.438 0.324 0.656 0.803 0.656 1.439 c 0 0.468 -0.123 0.837 -0.369 1.107 c -0.246 0.27 -0.571 0.466 -0.973 0.586 c 0.096 0.12 0.219 0.28 0.369 0.484 c 0.156 0.204 0.317 0.43 0.479 0.676 c 0.162 0.24 0.321 0.492 0.477 0.756 c 0.156 0.264 0.287 0.516 0.395 0.756 l -0.656 0 c -0.126 -0.24 -0.264 -0.479 -0.414 -0.719 c -0.144 -0.24 -0.293 -0.471 -0.449 -0.693 c -0.15 -0.228 -0.297 -0.439 -0.441 -0.631 l -0.379 -0.504 c -0.192 0.018 -0.384 0.027 -0.576 0.027 l -1.01 0 l 0 2.52 l -0.611 0 l 0 -6.119 c 0.216 -0.06 0.468 -0.103 0.756 -0.127 c 0.294 -0.03 0.565 -0.045 0.811 -0.045 z m 0.072 0.531 c -0.228 0 -0.43 0.009 -0.604 0.027 c -0.168 0.012 -0.31 0.023 -0.424 0.035 l 0 2.656 l 0.848 0 c 0.282 0 0.549 -0.013 0.801 -0.037 c 0.252 -0.03 0.47 -0.09 0.656 -0.18 c 0.186 -0.096 0.333 -0.23 0.441 -0.404 c 0.108 -0.174 0.162 -0.411 0.162 -0.711 c 0 -0.276 -0.054 -0.506 -0.162 -0.686 c -0.108 -0.18 -0.25 -0.32 -0.424 -0.422 c -0.174 -0.108 -0.374 -0.181 -0.602 -0.217 c -0.222 -0.042 -0.453 -0.063 -0.693 -0.063 z m 3.826 1.107 l 0.584 0 l 0 2.42 c 0 0.33 0.024 0.61 0.072 0.838 c 0.048 0.228 0.126 0.415 0.234 0.559 c 0.108 0.138 0.246 0.239 0.414 0.305 c 0.174 0.06 0.385 0.09 0.631 0.09 c 0.276 0 0.515 -0.015 0.719 -0.045 c 0.204 -0.03 0.333 -0.056 0.387 -0.08 l 0 -4.086 l 0.586 0 l 0 4.49 c -0.174 0.048 -0.407 0.102 -0.701 0.162 c -0.294 0.06 -0.654 0.09 -1.08 0.09 c -0.348 0 -0.639 -0.05 -0.873 -0.152 c -0.234 -0.102 -0.424 -0.246 -0.568 -0.432 c -0.144 -0.186 -0.248 -0.412 -0.314 -0.676 c -0.06 -0.264 -0.09 -0.555 -0.09 -0.873 l 0 -2.609 z m 6.04 2.311 c 0.203 0 0.379 0.031 0.527 0.094 c 0.148 0.059 0.268 0.137 0.361 0.234 c 0.098 0.098 0.168 0.209 0.211 0.334 c 0.047 0.125 0.07 0.252 0.07 0.385 c 0 0.129 -0.02 0.248 -0.059 0.357 c -0.039 0.105 -0.09 0.203 -0.152 0.293 c -0.062 0.086 -0.133 0.162 -0.211 0.229 c -0.078 0.066 -0.152 0.121 -0.227 0.168 c 0.273 0.117 0.463 0.264 0.572 0.439 c 0.113 0.176 0.17 0.362 0.17 0.557 c 0 0.168 -0.031 0.321 -0.094 0.461 c -0.058 0.14 -0.143 0.262 -0.252 0.363 c -0.109 0.098 -0.24 0.174 -0.396 0.229 c -0.156 0.059 -0.33 0.088 -0.521 0.088 c -0.191 0 -0.365 -0.027 -0.521 -0.082 c -0.152 -0.055 -0.283 -0.131 -0.396 -0.229 c -0.109 -0.101 -0.195 -0.219 -0.258 -0.352 c -0.059 -0.137 -0.088 -0.283 -0.088 -0.443 c 0 -0.136 0.02 -0.26 0.059 -0.369 c 0.039 -0.113 0.09 -0.213 0.152 -0.299 c 0.066 -0.09 0.141 -0.168 0.223 -0.234 c 0.086 -0.07 0.174 -0.131 0.268 -0.182 c -0.238 -0.117 -0.399 -0.254 -0.484 -0.414 c -0.086 -0.16 -0.129 -0.334 -0.129 -0.521 c 0 -0.168 0.029 -0.319 0.088 -0.455 c 0.058 -0.136 0.139 -0.252 0.24 -0.346 c 0.105 -0.098 0.229 -0.172 0.373 -0.223 c 0.144 -0.055 0.303 -0.082 0.475 -0.082 z m 0 0.328 c -0.129 0 -0.242 0.02 -0.34 0.059 c -0.098 0.039 -0.18 0.094 -0.246 0.164 c -0.062 0.066 -0.109 0.145 -0.145 0.234 c -0.031 0.09 -0.047 0.182 -0.047 0.279 c 0 0.109 0.012 0.209 0.035 0.299 c 0.027 0.09 0.074 0.172 0.145 0.246 c 0.07 0.07 0.168 0.137 0.293 0.199 c 0.125 0.059 0.289 0.115 0.492 0.17 c 0.179 -0.101 0.32 -0.227 0.426 -0.375 c 0.105 -0.148 0.158 -0.334 0.158 -0.557 c 0 -0.09 -0.016 -0.176 -0.047 -0.262 c -0.027 -0.086 -0.072 -0.162 -0.135 -0.229 c -0.059 -0.07 -0.135 -0.125 -0.232 -0.164 c -0.098 -0.043 -0.217 -0.064 -0.357 -0.064 z m -0.234 1.848 c -0.199 0.094 -0.352 0.221 -0.461 0.381 c -0.109 0.156 -0.164 0.346 -0.164 0.568 c 0 0.109 0.018 0.209 0.053 0.303 c 0.035 0.094 0.088 0.176 0.158 0.246 c 0.074 0.07 0.162 0.127 0.268 0.17 c 0.109 0.039 0.237 0.059 0.381 0.059 c 0.144 0 0.27 -0.02 0.375 -0.059 c 0.109 -0.043 0.197 -0.1 0.268 -0.17 c 0.074 -0.07 0.129 -0.152 0.164 -0.246 c 0.035 -0.094 0.053 -0.194 0.053 -0.303 c 0 -0.168 -0.033 -0.305 -0.1 -0.41 c -0.062 -0.105 -0.145 -0.192 -0.25 -0.258 c -0.101 -0.066 -0.219 -0.119 -0.352 -0.158 c -0.129 -0.039 -0.26 -0.08 -0.393 -0.123 z" style="fill:#ececec;fill-opacity:1"/>
</svg>
